lib/healthicons/icons/outline/typography/question_mark.svg

<svg fill="none" height="48" viewBox="0 0 48 48" width="48" xmlns="http://www.w3.org/2000/svg"><g clip-rule="evenodd" fill="#333" fill-rule="evenodd"><path d="m24.1188 9.00123c-.0288-.00082-.0577-.00123-.0867-.00123h-.0642c-.0289 0-.0578.00041-.0866.00123-4.9039.08031-8.8813 4.06327-8.8813 8.99877 0 1.6569 1.3432 3 3 3 1.6569 0 3-1.3431 3-3 0-1.6321 1.3263-2.9828 3-2.9998 1.6737.017 3 1.3677 3 2.9998 0 1.6425-1.3432 3-3.0321 3-1.6568 0-3 1.3431-3 3v4c0 1.6569 1.3432 3 3 3 1.6569 0 3-1.3431 3-3v-1.509c3.506-1.2305 6.0321-4.5578 6.0321-8.491 0-4.9355-3.9774-8.91846-8.8812-8.99877zm-.0867 1.99877c.0109 0 .0217.0002.0325.0005l.0157.0004c3.8273.0596 6.9197 3.1659 6.9197 6.9991 0 3.2662-2.2451 6.0059-5.2796 6.7809-.4427.1131-.7525.5119-.7525.9689v2.2502c0 .5523-.4477 1-1 1s-1-.4477-1-1v-4c0-.5523.4477-1 1-1 2.785 0 5.0321-2.2444 5.0321-5 0-2.7425-2.2257-4.9785-4.9923-4.9998h-.0154c-2.7666.0213-4.9923 2.2573-4.9923 4.9998 0 .5523-.4477 1-1 1-.5522 0-1-.4477-1-1 0-3.8332 3.0925-6.9395 6.9197-6.9991l.0158-.0004c.0107-.0003.0215-.0005.0324-.0005z"/><path d="m24 35c-.5523 0-1 .4477-1 1s.4477 1 1 1 1-.4477 1-1-.4477-1-1-1zm-3 1c0-1.6569 1.3431-3 3-3s3 1.3431 3 3-1.3431 3-3 3-3-1.3431-3-3z"/></g></svg>

<svg width="48" height="48" viewBox="0 0 48 48" fill="none" xmlns="http://www.w3.org/2000/svg">
<path fill-rule="evenodd" clip-rule="evenodd" d="M24.1188 9.00123C24.09 9.00041 24.0611 9 24.0321 9H23.9679C23.939 9 23.9101 9.00041 23.8813 9.00123C18.9774 9.08154 15 13.0645 15 18C15 19.6569 16.3432 21 18 21C19.6569 21 21 19.6569 21 18C21 16.3679 22.3263 15.0172 24 15.0002C25.6737 15.0172 27 16.3679 27 18C27 19.6425 25.6568 21 23.9679 21C22.3111 21 20.9679 22.3431 20.9679 24V28C20.9679 29.6569 22.3111 31 23.9679 31C25.6248 31 26.9679 29.6569 26.9679 28V26.491C30.4739 25.2605 33 21.9332 33 18C33 13.0645 29.0226 9.08154 24.1188 9.00123ZM24.0321 11C24.043 11 24.0538 11.0002 24.0646 11.0005L24.0803 11.0009C27.9076 11.0605 31 14.1668 31 18C31 21.2662 28.7549 24.0059 25.7204 24.7809C25.2777 24.894 24.9679 25.2928 24.9679 25.7498V28C24.9679 28.5523 24.5202 29 23.9679 29C23.4156 29 22.9679 28.5523 22.9679 28V24C22.9679 23.4477 23.4156 23 23.9679 23C26.7529 23 29 20.7556 29 18C29 15.2575 26.7743 13.0215 24.0077 13.0002H23.9923C21.2257 13.0215 19 15.2575 19 18C19 18.5523 18.5523 19 18 19C17.4478 19 17 18.5523 17 18C17 14.1668 20.0925 11.0605 23.9197 11.0009L23.9355 11.0005C23.9462 11.0002 23.957 11 23.9679 11H24.0321Z" fill="#333333"/>
<path fill-rule="evenodd" clip-rule="evenodd" d="M24 35C23.4477 35 23 35.4477 23 36C23 36.5523 23.4477 37 24 37C24.5523 37 25 36.5523 25 36C25 35.4477 24.5523 35 24 35ZM21 36C21 34.3431 22.3431 33 24 33C25.6569 33 27 34.3431 27 36C27 37.6569 25.6569 39 24 39C22.3431 39 21 37.6569 21 36Z" fill="#333333"/>
</svg>
